X:74
T:Hornpipe. JBu.74
O:England,South Yorkshire
S:Joshua Burnett’s MS,c1835,S.Yorkshire
M:2/4
L:1/16
Q:1/4=70
R:.hornpipe
Z:vmp.R.Greig.2011
K:G
DEF2|G2G2 BGBd| g2g2g2>d2|efgf dcBA|BAcA GFED|
G2G2 BGBd|g2g2g2>e2|fafd fedc|d2d2d2:|
|:B^c|dcBA GFED|E2C2C2 cd|edcB AGFE|F2D2D2 EF|
GDGD ADAD|BGBd g2(fe)|dgfe dcBA|B2G2G2:|
|:(3DEF|GDBG dBdg|bgfa g2(fe)|defg edcB|BAcA GFED|
GDBG dBdg|bagf g2>e2|fafd egec|d2d2d2:|
|:(fg)|afdA FDaf|bgdB GBdg|bgaf geag|f2d2d2 ef|
ecGc ecgc|dBGB dBgd|fgAc BAGF|G2G2G2:|
